X:18
T:Partie de Lancier 1
M:6/8
K:G
Bc |\
d^cd ed^c | d2B G2B | A2F D2c | BGE DBc |\
d^cd ed^c | d2B G2B | A2D cBA | G3- G  :|
|: Bc |\
d^cd ed^c | dBG DBc | d^cd edB |  cAF D2A |\
cBc  d^cd | f3- f2e | ded  cBA |1 BGE D  :|2 G3- G |]
